Sources/FrostedUI/Resources/Icons.xcassets/inbox32.imageset/inbox-32.svg

<svg width="32" height="32" viewBox="0 0 32 32" fill="none" xmlns="http://www.w3.org/2000/svg" data-fui-icon="true">
  <g clip-path="url(#clip0_3954_3)">
    <path
      d="M26.2852 0.25C29.3033 0.25001 31.75 2.6967 31.75 5.71484V26.2852C31.75 29.3033 29.3033 31.75 26.2852 31.75H5.71484C2.6967 31.75 0.25001 29.3033 0.25 26.2852V5.71484C0.25001 2.6967 2.6967 0.25001 5.71484 0.25H26.2852ZM1.75 26.2852C1.75001 28.4749 3.52513 30.25 5.71484 30.25H26.2852C28.4749 30.25 30.25 28.4749 30.25 26.2852V19.75H21.9346C21.5451 22.5777 18.9895 24.75 16 24.75C13.0105 24.75 10.4549 22.5777 10.0654 19.75H1.75V26.2852ZM5.71484 1.75C3.52513 1.75001 1.75001 3.52513 1.75 5.71484V18.25H10.7617C11.1759 18.25 11.5117 18.5858 11.5117 19C11.5117 21.2911 13.5129 23.25 16 23.25C18.4871 23.25 20.4883 21.2911 20.4883 19C20.4883 18.5858 20.8241 18.25 21.2383 18.25H30.25V5.71484C30.25 3.52513 28.4749 1.75001 26.2852 1.75H5.71484Z"
      fill="currentColor"
    />
  </g>
  <defs>
    <clipPath id="clip0_3954_3"><path fill="currentColor" d="M0 0H32V32H0z" /></clipPath>
  </defs>
</svg>

<svg xmlns="http://www.w3.org/2000/svg" width="32" height="32" fill="none" data-fui-icon="true" viewBox="0 0 32 32"><g clip-path="url(#a)"><path fill="currentColor" d="M26.285.25a5.465 5.465 0 0 1 5.465 5.465v20.57a5.465 5.465 0 0 1-5.465 5.465H5.715A5.465 5.465 0 0 1 .25 26.285V5.715A5.465 5.465 0 0 1 5.715.25zM1.75 26.285a3.965 3.965 0 0 0 3.965 3.965h20.57a3.965 3.965 0 0 0 3.965-3.965V19.75h-8.315c-.39 2.828-2.945 5-5.935 5s-5.545-2.172-5.935-5H1.75zM5.715 1.75A3.965 3.965 0 0 0 1.75 5.715V18.25h9.012a.75.75 0 0 1 .75.75c0 2.291 2 4.25 4.488 4.25 2.487 0 4.488-1.959 4.488-4.25a.75.75 0 0 1 .75-.75h9.012V5.715a3.965 3.965 0 0 0-3.965-3.965z"/></g><defs><clipPath id="a"><path fill="currentColor" d="M0 0h32v32H0z"/></clipPath></defs></svg>
